X:66
T:Polonesse in A Dur No 6
S:Ur Anders Larssons notbok 
O:Östra Ryd, Östergötland
C: 
R:Slängpolska
B: Anders Larssons notbok
B:http://www.smus.se/earkiv/fmk/browselarge.php?lang=sw&katalogid=M+189&bildnr=00015
M:3/4
L:1/16
K:A
A3d cBAG ABcd | e2fe (e2d2)(d2c2) | E2FE E2D2D2C2 | B,2dc c4 B4 ::
egbg egbg egbg | e2a2c'2e2c2A2 | Adfd Adfd Adfd | B2g2a2e2c2A2 | d2fd c2ec B2d2 | cBAG A4 A,4 :|]

